icons/folder-fastlane.svg

<svg xmlns="http://www.w3.org/2000/svg" viewBox="0 0 16 16">
<path id="folder" fill="#1e88e5" d="m6.922 3.768-.644-.536A1 1 0 0 0 5.638 3H2a1 1 0 0 0-1 1v8a1 1 0 0 0 1 1h12a1 1 0 0 0 1-1V5a1 1 0 0 0-1-1H7.562a1 1 0 0 1-.64-.232" />
<path id="motive" fill="#e3f2fd" d="M 10.96875 5 A 1.9999593 1.9999602 0 0 0 10.822266 5.0078125 A 1.5699681 1.5699688 0 0 0 9.7421875 5.5976562 A 1.6999654 1.6999662 0 0 0 9.5136719 7.3261719 L 7.9003906 8.5722656 A 0.67498627 0.67498658 0 0 0 7.0078125 8.8398438 A 0.72498525 0.72498558 0 0 0 6.9296875 9.3769531 A 0.69998576 0.69998608 0 0 0 7.2402344 9.8144531 A 0.66498647 0.66498677 0 0 0 7.59375 9.9160156 A 0.67998617 0.67998648 0 0 0 8.1816406 9.5742188 A 0.73498504 0.73498538 0 0 0 8.2695312 9.0878906 L 10.339844 7.5136719 A 0.08499827 0.08499831 0 0 0 10.373047 7.453125 A 0.08499827 0.08499831 0 0 0 10.347656 7.3886719 A 1.0449787 1.0449792 0 0 1 10.068359 6.3574219 A 0.94148085 0.94148128 0 0 1 11.259766 5.7246094 A 0.97498016 0.97498061 0 0 1 11.916016 6.6367188 A 0.07999837 0.07999841 0 0 0 11.992188 6.7167969 L 12.484375 6.7265625 A 0.09999796 0.09999801 0 0 0 12.541016 6.703125 A 0.08499827 0.08499831 0 0 0 12.566406 6.6445312 A 1.669966 1.6699668 0 0 0 12.09375 5.4785156 A 1.5599683 1.559969 0 0 0 10.96875 5 z M 11.013672 6.0058594 A 0.7124855 0.71248583 0 0 0 11.011719 7.4277344 L 11.013672 7.4277344 A 0.64998677 0.64998707 0 0 0 11.330078 7.3476562 L 13.412109 8.9160156 A 0.07999837 0.07999841 0 0 0 13.478516 8.9296875 A 0.07999837 0.07999841 0 0 0 13.53125 8.8867188 A 0.98997986 0.98998031 0 0 1 14.398438 8.296875 A 0.96648034 0.96648078 0 0 1 15.347656 9.2792969 A 0.97998006 0.97998051 0 0 1 14.699219 10.208984 A 0.08299831 0.08299835 0 0 0 14.648438 10.310547 L 14.787109 10.800781 A 0.07999837 0.07999841 0 0 0 14.828125 10.849609 A 0.07499848 0.07499851 0 0 0 14.888672 10.855469 A 1.5999675 1.5999682 0 0 0 15.822266 10.035156 A 1.6999654 1.6999662 0 0 0 15.921875 8.7714844 A 1.574968 1.5749687 0 0 0 13.333984 8.0429688 L 11.693359 6.8261719 A 0.72998515 0.72998548 0 0 0 11.597656 6.3417969 A 0.68498607 0.68498638 0 0 0 11.169922 6.0234375 A 0.64998677 0.64998707 0 0 0 11.015625 6.0058594 L 11.013672 6.0058594 z M 7.578125 7.5332031 A 1.6074673 1.607468 0 0 0 6 9.1484375 A 1.6499664 1.6499672 0 0 0 6.6601562 10.496094 A 1.5399687 1.5399694 0 0 0 7.7539062 10.808594 L 8.390625 12.777344 A 0.72798519 0.72798552 0 0 0 8.359375 13.738281 A 0.67498627 0.67498658 0 0 0 8.828125 13.980469 L 8.8789062 13.982422 A 0.66498647 0.66498677 0 0 0 9.3261719 13.808594 A 0.69998576 0.69998608 0 0 0 9.4296875 13.693359 A 0.72298529 0.72298562 0 0 0 9.2753906 12.707031 A 0.67998617 0.67998648 0 0 0 8.9765625 12.580078 L 8.1835938 10.060547 A 0.07999837 0.07999841 0 0 0 8.1386719 10.011719 A 0.07499848 0.07499851 0 0 0 8.0703125 10.013672 A 0.95998047 0.95998091 0 0 1 7.0410156 9.9570312 A 0.9974797 0.99748016 0 0 1 6.8300781 8.5976562 A 0.91998128 0.9199817 0 0 1 7.875 8.25 A 0.07999837 0.07999841 0 0 0 7.9746094 8.1992188 L 8.1367188 7.7226562 A 0.08499827 0.08499831 0 0 0 8.1328125 7.6601562 A 0.07999837 0.07999841 0 0 0 8.0859375 7.6171875 A 1.4999695 1.4999702 0 0 0 7.5976562 7.5332031 L 7.578125 7.5332031 z M 14.369141 8.5644531 A 0.68298611 0.68298642 0 0 0 13.685547 9.2128906 A 0.74998474 0.74998508 0 0 0 13.714844 9.4882812 A 0.69998576 0.69998608 0 0 0 13.882812 9.7714844 L 13.082031 12.285156 A 0.08499827 0.08499831 0 0 0 13.089844 12.353516 A 0.07999837 0.07999841 0 0 0 13.146484 12.392578 A 0.97598014 0.97598059 0 0 1 13.339844 14.283203 A 0.91998128 0.9199817 0 0 1 12.291016 13.9375 A 0.07799841 0.07799845 0 0 0 12.181641 13.917969 L 11.777344 14.205078 A 0.07999837 0.07999841 0 0 0 11.742188 14.257812 A 0.08499827 0.08499831 0 0 0 11.757812 14.320312 A 1.574968 1.5749687 0 0 0 13.048828 15 A 1.5499685 1.5499692 0 0 0 13.984375 14.685547 A 1.6799658 1.6799666 0 0 0 14.566406 12.851562 A 1.6149672 1.6149679 0 0 0 13.859375 11.941406 L 14.472656 9.96875 A 0.66998637 0.66998668 0 0 0 14.884766 9.7324219 A 0.71998535 0.71998568 0 0 0 15.048828 9.21875 A 0.68298611 0.68298642 0 0 0 14.369141 8.5644531 z M 7.6640625 12.296875 A 0.07499848 0.07499851 0 0 0 7.65625 12.298828 A 0.07999837 0.07999841 0 0 0 7.6035156 12.330078 A 1.6799658 1.6799666 0 0 0 7.3164062 13.554688 A 1.6499664 1.6499672 0 0 0 7.9492188 14.630859 A 1.5499685 1.5499692 0 0 0 8.8847656 14.949219 A 1.574968 1.5749687 0 0 0 10.171875 14.273438 A 1.6999654 1.6999662 0 0 0 10.443359 13.642578 L 12.449219 13.623047 A 0.67498627 0.67498658 0 0 0 13.322266 13.951172 A 0.69998576 0.69998608 0 0 0 13.689453 13.564453 A 0.72498525 0.72498558 0 0 0 13.6875 13.023438 A 0.68998596 0.68998628 0 0 0 13.316406 12.642578 A 0.64998677 0.64998707 0 0 0 12.792969 12.644531 A 0.69998576 0.69998608 0 0 0 12.445312 12.980469 L 9.8847656 12.988281 A 0.07999837 0.07999841 0 0 0 9.8242188 13.017578 A 0.08499827 0.08499831 0 0 0 9.8085938 13.085938 A 1.0399788 1.0399793 0 0 1 9.4453125 14.085938 A 0.90998148 0.9099819 0 0 1 8.7460938 14.263672 A 0.92998107 0.9299815 0 0 1 8.1289062 13.876953 A 0.99997965 0.99998011 0 0 1 8.1210938 12.732422 A 0.08499827 0.08499831 0 0 0 8.1054688 12.621094 L 7.7148438 12.314453 A 0.07499848 0.07499851 0 0 0 7.6640625 12.296875 z " />
</svg>

<svg xmlns="http://www.w3.org/2000/svg" viewBox="0 0 16 16"><path id="folder" fill="#1e88e5" d="m6.922 3.768-.644-.536A1 1 0 0 0 5.638 3H2a1 1 0 0 0-1 1v8a1 1 0 0 0 1 1h12a1 1 0 0 0 1-1V5a1 1 0 0 0-1-1H7.562a1 1 0 0 1-.64-.232"/><path id="motive" fill="#e3f2fd" d="M10.969 5a2 2 0 0 0-.147.008 1.57 1.57 0 0 0-1.08.59 1.7 1.7 0 0 0-.228 1.728L7.9 8.572a.675.675 0 0 0-.892.268.73.73 0 0 0-.078.537.7.7 0 0 0 .31.437.67.67 0 0 0 .354.102.68.68 0 0 0 .588-.342.74.74 0 0 0 .088-.486l2.07-1.574a.1.1 0 0 0 .033-.06.1.1 0 0 0-.025-.065 1.05 1.05 0 0 1-.28-1.032.94.94 0 0 1 1.192-.632.975.975 0 0 1 .656.912.08.08 0 0 0 .076.08l.492.01a.1.1 0 0 0 .057-.024.1.1 0 0 0 .025-.058 1.67 1.67 0 0 0-.472-1.166A1.56 1.56 0 0 0 10.969 5m.045 1.006a.712.712 0 0 0-.002 1.422h.002a.65.65 0 0 0 .316-.08l2.082 1.568a.08.08 0 0 0 .067.014.08.08 0 0 0 .052-.043.99.99 0 0 1 .867-.59.966.966 0 0 1 .95.982.98.98 0 0 1-.649.93.083.083 0 0 0-.05.102l.138.49a.08.08 0 0 0 .041.049.08.08 0 0 0 .06.005 1.6 1.6 0 0 0 .934-.82 1.7 1.7 0 0 0 .1-1.264 1.575 1.575 0 0 0-2.588-.728l-1.64-1.217a.73.73 0 0 0-.096-.484.7.7 0 0 0-.428-.319.7.7 0 0 0-.154-.017zM7.578 7.533A1.607 1.607 0 0 0 6 9.148a1.65 1.65 0 0 0 .66 1.348 1.54 1.54 0 0 0 1.094.313l.637 1.968a.73.73 0 0 0-.032.961.68.68 0 0 0 .47.242l.05.002a.67.67 0 0 0 .447-.173.7.7 0 0 0 .104-.116.723.723 0 0 0-.155-.986.7.7 0 0 0-.298-.127l-.793-2.52a.08.08 0 0 0-.045-.048.08.08 0 0 0-.069.002.96.96 0 0 1-1.029-.057.997.997 0 0 1-.21-1.36.92.92 0 0 1 1.044-.347.08.08 0 0 0 .1-.05l.162-.477a.1.1 0 0 0-.004-.063.08.08 0 0 0-.047-.043 1.5 1.5 0 0 0-.488-.084zm6.791 1.031a.683.683 0 0 0-.683.649.8.8 0 0 0 .029.275.7.7 0 0 0 .168.283l-.801 2.514a.1.1 0 0 0 .008.069.08.08 0 0 0 .056.039.976.976 0 0 1 .194 1.89.92.92 0 0 1-1.049-.345.08.08 0 0 0-.11-.02l-.404.287a.08.08 0 0 0-.035.053.1.1 0 0 0 .016.062 1.58 1.58 0 0 0 1.29.68 1.55 1.55 0 0 0 .936-.314 1.68 1.68 0 0 0 .582-1.834 1.62 1.62 0 0 0-.707-.91l.614-1.973a.67.67 0 0 0 .412-.237.72.72 0 0 0 .164-.513.683.683 0 0 0-.68-.655m-6.705 3.733-.008.002a.08.08 0 0 0-.052.031 1.68 1.68 0 0 0-.288 1.225 1.65 1.65 0 0 0 .633 1.076 1.55 1.55 0 0 0 .936.318 1.58 1.58 0 0 0 1.287-.676 1.7 1.7 0 0 0 .271-.63l2.006-.02a.675.675 0 0 0 .873.328.7.7 0 0 0 .367-.387.73.73 0 0 0-.002-.54.7.7 0 0 0-.37-.381.65.65 0 0 0-.524.002.7.7 0 0 0-.348.335l-2.56.008a.08.08 0 0 0-.06.03.1.1 0 0 0-.016.068 1.04 1.04 0 0 1-.364 1 .9.9 0 0 1-.699.178.93.93 0 0 1-.617-.387 1 1 0 0 1-.008-1.145.085.085 0 0 0-.016-.11l-.39-.308a.1.1 0 0 0-.05-.017"/></svg>
